X: 2079
T: Çamlar Altında Uzattı...
C: Bîmen Şen
O: Turkey
F: http://compmusic.upf.edu/node/140
N: saba--sarki--agiraksak--camlar_altinda--bimen_sen
N: makam= saba
N: form= sarki
N: usul= agiraksak = 9/4
M: 9/4
L: 1/16
K: C _2/4B _3/4d  
Q: 1/4=69
%%MIDI tuningsystem comma53
c2d4cB c3B A4 B2AB c2BA A4 edcB c4  | \
w:  ARANAĞME  | 
c3d e2f2 g2_7/8a2 g3f f3e e3d d3c cBAB c4  | 
w:   | 
c3d e2f2 g2_7/8a2 g3f f3e e3d d3c c3B B3A  | \
w:   | 
A2B2 A2B2 c2de d2c2 c3B cBBA A4 G2AB c4  | 
w:   | 
c2d4cB c3B A4 B2AB c2BA A4 edcB c4  | \
w:  ARANAĞME  | 
c3d e2f2 g2_7/8a2 g3f f3e e3d d3c cBAB c4  | 
w:   | 
c3d e2f2 g2_7/8a2 g3f f3e e3d d3c c3B B3A  | \
w:   | 
A2B2 A2B2 c2de d2c2 c3B cBBA A12  | 
w:   | 
z8 z2A4d2 c8 d3c B4 c2d2  | edcd c2B2 z2e2 d2dc dccB cBBA A8 B2cB  | 
w:  Çam lar_ al tın  |  *  *  *  *  *  *  da  *  u *  zat *  *  *  *  *  *  *  tı  SAZ  | 
A3B AGA2 z2c4d2 efed c4 d2e2 f2g2 e2d2  | \
w:  *  *  *  *  *  dest_ i  nâ *  *  *  *  zı   | 
d2cd c2B2 z2cd c2d2 dcBA B2c2 B2c4B2 e2dc  | 
w:  *  *  *  *  *  bir  *  *  *  *  *  *  *  *  pe ri   *  SAZ  | 
c3d cBc2 z2e2 d2c2 d3c d4 c4 d4 c4  | \
w:  *  *  *  *  *  Kor *  ka  kor *  *  ka   | 
deed c2B2 z2cd c2de d2cd c2d2 c2BA B2c2 B2cB  | 
w:  *  *  *  *  *  *  kok *  la *  *  dım  *  *  *  *  öp  | 
B6A2 z2c4d2 efed c2B2 cddc B2A2 B2c2  | \
w:  *  *  tüm  o  ner *  *  *  *  *  mîn   | 
dcBc B2A2 z2cd c2d2 dccB cBBA A4 z2ed cBAB  | 
w:  *  *  *  *  *  *  el *  *  *  *  *  *  *  le *  *  *  ri   SAZ  | 
c3d cBc2 z2e2 d2c2 d3c d4 c4 d4 c4  | \
w:  *  *  *  *  *  Kor *  ka  kor *  *  ka   | 
deed c2B2 z2cd c2de d2cd c2d2 c2BA B2c2 B2cB  | 
w:  *  *  *  *  *  *  kok *  la *  *  dım  *  *  *  *  öp  | 
B6A2 z2c4d2 efed c2B2 cddc B2A2 B2c2  | \
w:  *  *  tüm  o  ner *  *  *  *  *  mîn   | 
dcBc B2A2 z2cd c2d2 dccB cBBA A4 z2ef e=dcd  | 
w:  *  *  *  *  *  *  el *  *  *  *  *  *  *  le *  *  *  ri   SAZ  | 
e3f e=de2 z2d4e2 e8 e4 f4 e2f2  | \
w:  *  *  *  *  *  Gon ca lar  aç  | 
g2ag fef2 z2f4a2 g2f2 e2a2 g2f2 e2=d2 d2ed  | 
w:  *  *  *  *  *  *  tı  fe min *  *  *  de   | 
=d8 z2cd c2d2 efed c4 d2e2 f2g2 a2gf  | \
w:  *  ip *  *  ti sâ *  *  *  *  mı   | 
f3g fef2 z2a2 g2f2 e2fg agfe f4 z2g_7/8a gfef  | 
w:  *  *  *  *  *  dil *  *  *  *  *  be *  *  *  ri   SAZ  | 
g3_7/8a gfg2 z2f4g2 g8 (3a2g2f2 (3e2f2g2 f4  | \
w:  *  *  *  *  *  Gon ca lar  aç  | 
b_7/8aag gfg2 z2g4a2 g2f2 e2_2/4a2 g2f2 e2d2 edcB  | 
w:  *  *  *  *  *  *  *  tı  fe min *  *  *  de   | 
c8 z2c4d2 efed c4 d2e2 f2g2 e2d2  | \
w:  *  ip ti sâ *  *  *  *  mı   | 
d2cd c2B2 z2cd c2d2 dcBA B2c2 B2c4B2 e2dc  | 
w:  *  *  *  *  *  dil *  *  *  *  *  *  *  *  be ri   *  SAZ  | 
c3d cBc2 z2e2 d2c2 d3c d4 c4 d4 c4  | \
w:  *  *  *  *  *  Kor *  ka  kor *  *  ka   | 
deed c2B2 z2cd c2de d2cd c2d2 c2BA B2c2 B2cB  | 
w:  *  *  *  *  *  *  kok *  la *  *  dım  *  *  *  *  öp  | 
B6A2 z2c4d2 efed c2B2 cddc B2A2 B2c2  | \
w:  *  *  tüm  o  ner *  *  *  *  *  mîn   | 
dcBc B2A2 z2cd c2d2 dccB cBBA A4 z2ed cBAB  | 
w:  *  *  *  *  *  *  el *  *  *  *  *  *  *  le *  *  *  ri   SAZ  | 
c3d cBc2 z2e2 d2c2 d3c d4 c4 d4 c4  | \
w:  *  *  *  *  *  Kor *  ka  kor *  *  ka   | 
deed c2B2 z2cd c2de d2cd c2d2 c2BA B2c2 B2cB  | 
w:  *  *  *  *  *  *  kok *  la *  *  dım  *  *  *  *  öp  | 
B6A2 z2c4d2 efed c2B2 cddc B2A2 B2c2  | \
w:  *  *  tüm  o  ner *  *  *  *  *  mîn   | 
dcBc B2A2 z2cd c2d2 dccB cBBA A4 z2|
w:  *  *  *  *  *  *  el *  *  *  *  *  *  *  le *  *  *  ri    | 


